school/img/country/GQ.svg

<svg width="13" height="12" viewBox="0 0 13 12" fill="none" xmlns="http://www.w3.org/2000/svg">
<rect x="0.25" y="0.25" width="12.5" height="11.5" rx="1.75" fill="white" stroke="#F5F5F5" stroke-width="0.5"/>
<mask id="mask0" mask-type="alpha" maskUnits="userSpaceOnUse" x="0" y="0" width="13" height="12">
<rect x="0.25" y="0.25" width="12.5" height="11.5" rx="1.75" fill="white" stroke="white" stroke-width="0.5"/>
</mask>
<g mask="url(#mask0)">
<path fill-rule="evenodd" clip-rule="evenodd" d="M0 12H13V8H0V12Z" fill="#EC3938"/>
<path fill-rule="evenodd" clip-rule="evenodd" d="M0 4H13V0H0V4Z" fill="#51B422"/>
<path fill-rule="evenodd" clip-rule="evenodd" d="M6.31802 7.02833C6.3317 7.00992 6.33913 6.98762 6.33923 6.96468L6.34459 5.75325C6.34496 5.66872 6.27654 5.59999 6.192 5.59999V5.59999C6.0652 5.59999 5.99372 5.4543 6.07132 5.35401L6.25983 5.1104C6.38142 4.95327 6.61864 4.95327 6.74023 5.1104L6.92846 5.35365C7.00618 5.45409 6.93459 5.59999 6.80761 5.59999V5.59999C6.72321 5.59999 6.65479 5.6684 6.65479 5.7528V6.96368C6.65479 6.98722 6.66261 7.01009 6.67701 7.0287V7.0287C6.73105 7.09854 6.68128 7.19999 6.59298 7.19999H6.40434C6.31596 7.19999 6.26532 7.09928 6.31802 7.02833V7.02833Z" fill="#159940"/>
<path fill-rule="evenodd" clip-rule="evenodd" d="M0 0L4.33333 6L0 12V0Z" fill="#258DE7"/>
</g>
</svg>

<svg width="13" height="12" fill="none" xmlns="http://www.w3.org/2000/svg"><rect x=".25" y=".25" width="12.5" height="11.5" rx="1.75" fill="#fff" stroke="#F5F5F5" stroke-width=".5"/><mask id="a" maskUnits="userSpaceOnUse" x="0" y="0" width="13" height="12"><rect x=".25" y=".25" width="12.5" height="11.5" rx="1.75" fill="#fff" stroke="#fff" stroke-width=".5"/></mask><g mask="url(#a)" fill-rule="evenodd" clip-rule="evenodd"><path d="M0 12h13V8H0v4z" fill="#EC3938"/><path d="M0 4h13V0H0v4z" fill="#51B422"/><path d="M6.318 7.028a.107.107 0 00.021-.063l.006-1.212a.153.153 0 00-.153-.153.153.153 0 01-.12-.246l.188-.244a.304.304 0 01.48 0l.188.244c.078.1.007.246-.12.246a.153.153 0 00-.153.153v1.21c0 .024.008.047.022.066a.106.106 0 01-.084.171h-.189a.108.108 0 01-.086-.172z" fill="#159940"/><path d="M0 0l4.333 6L0 12V0z" fill="#258DE7"/></g></svg>
